!!!!SEGMENT: pl-sa--446-a-viii-86--002_brentner-johann-joseph-ignaz--huc-piae-animae.krn
!!!cenid: 17xx:558
!!!COM: Brentner, Johann Joseph Ignaz
!!!COM-rismid: pe30000477
!!!CDT: 1689/11/03-1742/06/28
!!!CNT: Czech
!!!OTL: Huc piae animae
!!!PDT:
!!!AGN: Sacred
!!!SMS-siglum: PL-SA
!!!SMS-shelfmark: 446/A VIII 86
!!!SMS-shelfwork: 002 W
!!!SMS-variant:
!!!SMS-altvar:
!!!NIFC-rismid: 1001041304
!!!URL-scan: http://bc.bdsandomierz.pl/dlibra/publication/1740/edition/1708/content
!!!ONB-nifc:
**kern	**fba	**kern	**kern	**kern	**text
*part4	*	*part3	*part2	*part1	*part1
*	*	*group1	*group1	*	*
*staff4	*	*staff3	*staff2	*staff1	*staff1
*Iorgan	*	*Ivioln	*Ivioln	*Ivox	*
*I"Pro Organo	*	*I"Violino Secondo	*I"Violino Primo	*I"Canto Solo	*
*I'org	*	*I'vl II	*I'vl I	*I'C	*
*clefF4	*	*clefG2	*clefG2	*clefC1	*
*k[f#c#]	*	*k[f#c#]	*k[f#c#]	*k[f#c#]	*
*b:	*	*b:	*b:	*b:	*
*M2/4	*	*M2/4	*M2/4	*M2/4	*
*>[A,B,A]	*	*>[A,B,A]	*>[A,B,A]	*>[A,B,A]	*
=1	=1	=1	=1	=1	=1
*>A	*	*>A	*>A	*>A	*
!LO:TX:b:B:t=Huc piae anime	!	!LO:TX:b:B:t=Huc pie animae	!LO:TX:b:B:t=Huc pie animae	!	!
!	!	!LO:TX:a:B:t=Concerto 2da	!LO:TX:a:B:t=2 Concert	!LO:TX:a:B:t=2 Concerto	!
!LO:TX:a:t=P:problem:krzyżyki FF# C# F# jeden nad drugim	!	!LO:TX:a:t=P:problem:krzyżyki f# cc# ff# jeden nad drugim	!LO:TX:a:t=P:problem:krzyżyki f# cc# ff# jeden nad drugim	!LO:TX:a:t=P:problem:krzyżyki f# cc# jeden nad drugim	!
!	!	!	!	!LO:N:vis=00	!
4.D/	.	4r	4r	0r	.
.	.	8r	8r	.	.
8r	.	8a/	8a/	.	.
=2	=2	=2	=2	=2	=2
4r	.	4f#/	4dd\	.	.
8r	.	8r	8r	.	.
8AA/	.	8a/	8cc#\	.	.
=3	=3	=3	=3	=3	=3
4D\	.	8a/L	8dd\L	.	.
.	.	8cc#/	8ee\	.	.
8r	.	8dd/	8ff#\	.	.
8G\	6	8ee/J	8gg\J	.	.
=4	=4	=4	=4	=4	=4
8A\L	.	4.cc#\	4.ee\	.	.
!LO:TX:t=P:problem:mixed beam	!	!	!	!	!
16AA/L	.	.	.	.	.
16BB/JJ	.	.	.	.	.
8C#/L	.	.	.	.	.
8AA/J	.	8cc#\	8ee\	.	.
=5	=5	=5	=5	=5	=5
!	!	!	!	!LO:N:vis=00	!
8D/L	.	8dd\L	8ff#\L	0r	.
8C#/	6	8a\	16ee\L	.	.
.	.	.	16dd\JJ	.	.
!	!	!	!LO:N:vis=8	!	!
8BB/	4	8b\	4ee\	.	.
8BB/J	6	8b\J	.	.	.
=6	=6	=6	=6	=6	=6
8AA/L	.	4.cc#\	4.cc#\	.	.
8BB/	.	.	.	.	.
8C#/	.	.	.	.	.
8AA/J	.	8cc#\	8ee\	.	.
=7	=7	=7	=7	=7	=7
4D\	.	16dd\LL	16ff#\LL	.	.
.	.	16cc#\	16ee\	.	.
.	.	16dd\	16ff#\	.	.
.	.	16ee\JJ	16gg\JJ	.	.
8r	.	16dd\LL	16ff#\LL	.	.
.	.	16ee\	16gg\	.	.
8D\	.	16cc#\	16ff#\	.	.
.	.	16ee\JJ	16gg\JJ	.	.
=8	=8	=8	=8	=8	=8
8AA/L	.	4cc#\	4ee\	.	.
8BB/	.	.	.	.	.
8C#/	.	8r	8r	.	.
8AA/J	.	8cc#\	8ee\	.	.
=9	=9	=9	=9	=9	=9
!	!	!	!	!LO:N:vis=00	!
4D/	.	16dd\LL	16ff#\LL	0r	.
.	.	16cc#\	16ee\	.	.
.	.	16dd\	16ff#\	.	.
.	.	16ee\JJ	16gg\JJ	.	.
8r	.	16dd\LL	16ff#\LL	.	.
.	.	16ee\	16ee\	.	.
8D/	.	16dd\	16ff#\	.	.
.	.	16ee\JJ	16gg\JJ	.	.
!	!	!LO:LB:g=original	!LO:LB:g=original	!	!
=10	=10	=10	=10	=10	=10
4AA/	.	16cc#\LL	16ee\LL	.	.
.	.	16b\	16dd\	.	.
.	.	16cc#\	16ee\	.	.
.	.	16dd\JJ	16ff#\JJ	.	.
8r	.	16cc#\LL	16ee\LL	.	.
.	.	16dd\	16ff#\	.	.
8AA/	.	16cc#\	16ee\	.	.
.	.	16dd\JJ	16ff#\JJ	.	.
=11	=11	=11	=11	=11	=11
4BB/	7	16b/LL	16dd\LL	.	.
.	.	16a/	16cc#\	.	.
.	.	16b/	16dd\	.	.
.	.	16cc#/JJ	16ee\JJ	.	.
8r	.	16b\LL	16dd\LL	.	.
.	.	16cc#\	16ee\	.	.
8BB/	6\	16b\	16dd\	.	.
.	.	16cc#\JJ	16ee\JJ	.	.
!LO:LB:g=original	!	!	!	!	!
=12	=12	=12	=12	=12	=12
4.AA/	.	8cc#\L	4.cc#\	.	.
.	.	8a\	.	.	.
.	.	8a\	.	.	.
16D\	.	8a\J	16cc#\LL	.	.
.	6\	.	.	.	.
16D\	.	.	16dd\JJ	.	.
=13	=13	=13	=13	=13	=13
!	!	!	!	!LO:N:vis=00	!
8E\L	#	8b\L	8ee\L	0r	.
8D\	6 5	16cc#\L	16ff#\L	.	.
.	.	16dd\JJ	16ee\JJ	.	.
!LO:TX:t=P:problem:mixed beam	!	!	!	!	!
8E\	#	8.b\L	8cc#\L	.	.
8EE/J	.	.	16b\L	.	.
.	.	16b\Jk	16a\JJ	.	.
=14	=14	=14	=14	=14	=14
8AA/L	.	4.cc#\	4.a/	.	.
8BB/	.	.	.	.	.
8C#/	.	.	.	.	.
8AA/J	.	8cc#\	8ee\	.	.
=15	=15	=15	=15	=15	=15
8D\L	.	16dd\LL	16ff#\LL	.	.
.	.	16cc#\	16ee\	.	.
8E\	.	16dd\	16ff#\	.	.
.	.	16ee\JJ	16gg\JJ	.	.
8F#\	6	16dd\LL	16ff#\LL	.	.
!	!	!LO:SIC:v:s=16ff#	!	!	!
.	.	16gg\	16aa\	.	.
!	!	!LO:SIC:v:s=16ee	!	!	!
8D\J	.	16ff#\	16gg\	.	.
!	!	!LO:SIC:v:s=16dd	!	!	!
.	.	16ee\JJ	16ff#\JJ	.	.
=16	=16	=16	=16	=16	=16
8AA/L	.	16cc#\LL	16ee\LL	.	.
.	.	16b\	16dd\	.	.
8BB/	.	16cc#\	16ee\	.	.
.	.	16dd\JJ	16ff#\JJ	.	.
8C#/	.	8cc#\L	8ee\L	.	.
8AA/J	.	8cc#\J	8ee\J	.	.
=17	=17	=17	=17	=17	=17
!	!	!	!	!LO:N:vis=00	!
8D\L	.	16dd\LL	16ff#\LL	0r	.
.	.	16cc#\	16ee\	.	.
8E\	.	16dd\	16ff#\	.	.
.	.	16ee\JJ	16gg\JJ	.	.
!	!	!LO:LB:g=original	!	!	!
8F#\	.	16dd\LL	16ff#\LL	.	.
.	.	16ff#\	16aa\	.	.
8D\J	.	16ee\	16gg\	.	.
.	.	16dd\JJ	16ff#\JJ	.	.
!	!	!	!LO:LB:g=original	!	!
=18	=18	=18	=18	=18	=18
8AA/L	.	8cc#\L	8ee\L	.	.
8AA/	.	8cc#\	8ee\	.	.
8AA/	.	8cc#\	8ee\	.	.
8D/J	.	8dd\J	8ff#\J	.	.
=19	=19	=19	=19	=19	=19
4.C#/	.	4.ee\	4.gg\	.	.
8C#/	6 4	8ee\	8gg\	.	.
=20	=20	=20	=20	=20	=20
!LO:TX:t=P:problem:brak taktu w źródle	!	!	!	!	!
2ryy	.	8dd\L	8.ff#\L	.	.
.	.	8ee\	.	.	.
.	.	.	16ee\	.	.
.	.	8.cc#\	8.ee\	.	.
.	.	16dd\Jk	16dd\Jk	.	.
=21	=21	=21	=21	=21	=21
8D\L	.	8dd\L	8dd\L	2r	.
8F#\	6 5	8dd\	8ee\	.	.
8A\	.	8ee\	8a\	.	.
!LO:TX:t=P:problem:mixed beam	!	!	!	!	!
8AA/J	4	8ee\J	8cc#\J	.	.
.	3	.	.	.	.
=22	=22	=22	=22	=22	=22
4.D\	.	4.ff#\	4.dd\	4r	.
.	.	.	.	8r	.
8r	.	8ryy	8a/	8a\	Huc
=23	=23	=23	=23	=23	=23
!LO:N:vis=00	!	!LO:N:vis=00	!LO:N:vis=00	!	!
0r	.	0r	0r	4dd\	huc
.	.	.	.	8r	.
.	.	.	.	8cc#\	huc
=24	=24	=24	=24	=24	=24
.	.	.	.	8dd\	pi-
.	.	.	.	8ee\	-ae
.	.	.	.	8ff#\	a-
.	.	.	.	8gg\	-ni-
=25	=25	=25	=25	=25	=25
.	.	.	.	8ee\	-mae
.	.	.	.	8r	.
.	.	.	.	4ee\	huc
=26	=26	=26	=26	=26	=26
.	.	.	.	8ff#\	pro-
.	.	.	.	8ee\	-pe-
.	.	.	.	(8dd\L	-ra-
.	.	.	.	8ee\J)	.
=27	=27	=27	=27	=27	=27
!LO:N:vis=00	!	!LO:N:vis=00	!LO:N:vis=00	!	!
0r	.	0r	0r	4.cc#\	-te
.	.	.	.	8a\	huc
=28	=28	=28	=28	=28	=28
.	.	.	.	4dd\	huc
.	.	.	.	8r	.
.	.	.	.	8cc#\	hu
=29	=29	=29	=29	=29	=29
.	.	.	.	8dd\	pi-
.	.	.	.	8ee\	-ae
.	.	.	.	(8ff#\L	a-
.	.	.	.	8gg\J)	.
!	!	!	!	!LO:LB:g=original	!
=30	=30	=30	=30	=30	=30
.	.	.	.	4ee\	-me
.	.	.	.	8r	.
.	.	.	.	8ee\	huc
=31	=31	=31	=31	=31	=31
!LO:N:vis=00	!	!LO:N:vis=00	!LO:N:vis=00	!	!
0r	.	0r	0r	8ff#\	fas-
.	.	.	.	8ee\	-ti-
.	.	.	.	(8dd\L	-na-
.	.	.	.	8ee\J)	.
=32	=32	=32	=32	=32	=32
.	.	.	.	4cc#,<\	-te,
.	.	.	.	8ryyJ	.
.	.	.	.	8ee\	ad
=33	=33	=33	=33	=33	=33
.	.	.	.	8ee\	fon-
.	.	.	.	8ee\	-tè
.	.	.	.	8ee\	gra-
.	.	.	.	16dd\LL	-ti-
.	.	.	.	16cc#\JJ	.
=34	=34	=34	=34	=34	=34
.	.	.	.	8.b\	-a-
.	.	.	.	16a\	.
.	.	.	.	8a\	-rum
.	.	.	.	8ee\	ad
=35	=35	=35	=35	=35	=35
!LO:N:vis=0	!	!LO:N:vis=0	!LO:N:vis=0	!	!
1r	.	1r	1r	8ee\	es-
.	.	.	.	8ee\	-cam-
.	.	.	.	8ee\	-be-
.	.	.	.	(16dd\LL	-a-
.	.	.	.	16cc#\JJ)	.
=36	=36	=36	=36	=36	=36
.	.	.	.	8.b\L	-to-
.	.	.	.	16a\Jk	.
.	.	.	.	8a\	-rum
.	.	.	.	8r	.
=37	=37	=37	=37	=37	=37
!LO:SIC:v:s=4D	!	!	!	!LO:N:vis=00	!
4r	.	4a/	4dd\	0r	.
8r	.	8r	8r	.	.
8AA/	.	8a/	8cc#\	.	.
!LO:LB:g=original	!	!	!	!	!
=38	=38	=38	=38	=38	=38
4D\	.	8dd\L	8dd\L	.	.
.	.	8cc#\	8ee\	.	.
8r	.	8dd\	8ff#\	.	.
8G\	.	8ee\J	8gg\J	.	.
=39	=39	=39	=39	=39	=39
8A\L	.	4.cc#\	4ee\	.	.
!LO:TX:t=P:problem:mixed beam	!	!	!	!	!
16AA/L	.	.	.	.	.
16BB/JJ	.	.	.	.	.
8C#/L	.	.	8r	.	.
8AA/J	.	8cc#\	8ee\	.	.
=40	=40	=40	=40	=40	=40
8D/L	.	8dd\L	8ff#\L	.	.
8C#/	6	8a\	8ee\	.	.
8BB/	4	8b\	8dd\	.	.
8BB/J	6\	8cc#\J	8ee\J	.	.
=41	=41	=41	=41	=41	=41
!	!	!	!	!LO:N:vis=00	!
8AA/L	.	4.a/	4.cc#\	0r	.
16AA/L	.	.	.	.	.
16BB/JJ	.	.	.	.	.
8C#/L	.	.	.	.	.
8AA/J	.	8ee\	8a\	.	.
!	!	!LO:LB:g=original	!	!	!
=42	=42	=42	=42	=42	=42
4D\	.	4a/	4dd\	.	.
8r	.	8r	8r	.	.
8AA/	.	8ee\	8cc#\	.	.
!	!	!	!LO:LB:g=original	!	!
=43	=43	=43	=43	=43	=43
4D\	.	8dd\L	8dd\L	.	.
.	.	8cc#\	8ee\	.	.
8r	.	8dd\	8ff#\	.	.
8G\	.	8ee\J	8gg\J	.	.
=44	=44	=44	=44	=44	=44
8A\L	.	4cc#\	4ee\	.	.
!LO:TX:t=P:problem:mixed beam	!	!	!	!	!
16AA/L	.	.	.	.	.
16BB/JJ	.	.	.	.	.
8C#/L	.	8r	8r	.	.
8AA/J	.	8cc#\	8ee\	.	.
=45	=45	=45	=45	=45	=45
!	!	!	!	!LO:N:vis=00	!
8D/L	.	8dd\L	8ff#\L	0r	.
8C#/	6	8ee\	8ee\	.	.
8BB/	4	8b\	8dd\	.	.
8BB/J	6\	8cc#\J	8ee\J	.	.
=46	=46	=46	=46	=46	=46
4.AA/	.	4.a/	4.cc#\	.	.
8E\	#	8g/	8b\	.	.
=47	=47	=47	=47	=47	=47
8AA/	.	8a\L	16cc#\LL	.	.
.	.	.	16ee\	.	.
8r	.	8cc#\	16cc#\	.	.
.	.	.	16ee\JJ	.	.
!	!	!LO:TX:a:t=P:problem:# above	!	!	!
8AA/	.	8g#X\	16cc#\LL	.	.
.	.	.	16ee\	.	.
8r	.	8b\J	16b\	.	.
.	.	.	16ee\JJ	.	.
!LO:LB:g=original	!	!	!	!	!
=48	=48	=48	=48	=48	=48
8A\L	.	8a/L	8cc#\L	.	.
!	!	!LO:TX:b:t=P:problem:# below	!	!	!
8E\	.	8g#X/	8b\	.	.
8E\	#	8g#/	8b\	.	.
8E\J	.	8g#/J	8b\J	.	.
=49	=49	=49	=49	=49	=49
!	!	!	!	!LO:N:vis=0	!
8AA/	.	8a\L	16cc#\LL	1r	.
.	.	.	16ee\	.	.
!	!	!	!LO:SIC:v:s=16cc#	!	!
8r	.	8cc#\	16b-X\	.	.
.	.	.	16ee\JJ	.	.
8AA/	.	8g#X\	16cc#\LL	.	.
.	.	.	16ee\	.	.
!	!	!	!LO:SIC:v:s=16b	!	!
8r	.	8b\J	16b-\	.	.
.	.	.	16ee\JJ	.	.
=50	=50	=50	=50	=50	=50
8A\L	.	8a/L	8cc#\L	.	.
!	!	!LO:TX:b:t=P:problem:# below	!	!	!
8E\	.	8g#X/	8b\	.	.
8E\	.	8g#/	8b\	.	.
8A\J	.	8cc#/J	8ee\J	.	.
=51	=51	=51	=51	=51	=51
8G#X\L	6 5	8cc#\L	8ee\L	2r	.
8A\	.	16b\L	16a\L	.	.
.	.	16a\JJ	16b\JJ	.	.
8E\	.	8b\L	8e/L	.	.
!LO:TX:t=P:problem:mixed beam	!	!	!	!	!
8EE/J	#	8b\J	8g#X/J	.	.
!	!	!LO:LB:g=original	!LO:LB:g=original	!LO:LB:g=original	!
=52	=52	=52	=52	=52	=52
4.AA/	.	4.cc#\	4.a/	4r	.
.	.	.	.	8r	.
8r	.	8cc#\	8ee\	8ee\	ad
=53	=53	=53	=53	=53	=53
!	!	!LO:TX:t=P:problem:dopisane 15 taktów pauz, żeby się piony zgadzały	!	!	!
!LO:N:vis=00	!	!	!LO:N:vis=00	!	!
0r	.	2ryy	0r	8ee\	fon-
.	.	.	.	8ee\	-tè
.	.	.	.	8ee\	gra-
.	.	.	.	16dd\LL	-ti-
.	.	.	.	16cc#\JJ	.
=54	=54	=54	=54	=54	=54
.	.	2ryy	.	8.b\	-a-
.	.	.	.	16a\	.
.	.	.	.	8a,<\	-rum
.	.	.	.	8ee\	ad
=55	=55	=55	=55	=55	=55
.	.	2ryy	.	8ee\	es-
.	.	.	.	8ee\	-cam
.	.	.	.	8ee\	be-
.	.	.	.	(16dd\LL	-a-
.	.	.	.	16cc#\JJ)	.
=56	=56	=56	=56	=56	=56
.	.	2ryy	.	8.b\	-to-
.	.	.	.	16a\	.
.	.	.	.	8a\	-rum
.	.	.	.	8dd\	huc
=57	=57	=57	=57	=57	=57
!LO:N:vis=00	!	!	!LO:N:vis=00	!	!
0r	.	2ryy	0r	8ee\	pro-
.	.	.	.	8ee\	-pe-
.	.	.	.	16ee\LL	-ra-
.	.	.	.	16ff#\JJ	.
.	.	.	.	16dd\LL	-te
.	.	.	.	16ee\JJ	.
=58	=58	=58	=58	=58	=58
!	!	!	!	!LO:N:vis=4.	!
.	.	2ryy	.	8.ff#\	a-
.	.	.	.	16ff#\	-ni-
.	.	.	.	8ff#\	-mae
.	.	.	.	8ee\	huc
!	!	!	!	!LO:LB:g=original	!
=59	=59	=59	=59	=59	=59
.	.	2ryy	.	8ff#\	huc
.	.	.	.	8r	.
.	.	.	.	8r	.
*	*	*	*	*	*ij
.	.	.	.	8ee\	huc
=60	=60	=60	=60	=60	=60
.	.	2ryy	.	8ff#\	huc
*	*	*	*	*	*Xij
.	.	.	.	8r	.
.	.	.	.	8r	.
.	.	.	.	8ee\	huc
=61	=61	=61	=61	=61	=61
!LO:N:vis=00	!	!	!LO:N:vis=00	!	!
0r	.	2ryy	0r	8ff#\	pro-
.	.	.	.	16gg\LL	-pe-
.	.	.	.	16ff#\JJ	.
.	.	.	.	8.ee\	-ra-
.	.	.	.	16dd\	.
=62	=62	=62	=62	=62	=62
.	.	2ryy	.	8dd,<\	-te
.	.	.	.	8a\	huc
.	.	.	.	8b\	fe-
.	.	.	.	8cc#\	.
=63	=63	=63	=63	=63	=63
.	.	2ryy	.	(8dd\	-sti-
.	.	.	.	8cc#\)	.
.	.	.	.	(8dd\	-na-
.	.	.	.	8ee\)	-te
=64	=64	=64	=64	=64	=64
.	.	2ryy	.	4ff#\	huc
.	.	.	.	8ryy	.
.	.	.	.	8ee\	huc
=65	=65	=65	=65	=65	=65
*	*	*	*	*	*ij
!LO:N:vis=0	!	!	!LO:N:vis=0	!	!
1r	.	2ryy	1r	8ff#\	huc
.	.	.	.	8r	.
.	.	.	.	8r	.
.	.	.	.	8ee\	huc
=66	=66	=66	=66	=66	=66
.	.	2ryy	.	8ff#\	huc
*	*	*	*	*	*Xij
.	.	.	.	8r	.
.	.	.	.	8r	.
.	.	.	.	8gg\	huc
!	!	!	!	!LO:LB:g=original	!
=67	=67	=67	=67	=67	=67
2r	.	2ryy	2r	(16ff#\LL	fe-
.	.	.	.	16ee\JJ)	.
.	.	.	.	(16dd\LL	-sti-
.	.	.	.	16ee\JJ)	.
.	.	.	.	8ff#\	-na-
.	.	.	.	(16ee\LL	.
.	.	.	.	16dd\JJ)	.
=68	=68	=68	=68	=68	=68
4.D\	.	8.f#/L	4.dd\	4.dd\	-te
.	.	16a/Jk	.	.	.
.	.	4f#/	.	.	.
8r	.	.	8a\	8r	.
=69	=69	=69	=69	=69	=69
!LO:N:vis=8	!	!	!	!LO:N:vis=00	!
4r	.	4f#/	4dd\	0r	.
8r	.	8r	8r	.	.
8AA/	.	8a/	8cc#\	.	.
=70	=70	=70	=70	=70	=70
4D\	.	8a\L	8dd\L	.	.
.	.	8cc#\	8ee\	.	.
8r	.	8dd\	8ff#\	.	.
8G\	.	8ee\J	8gg\J	.	.
=71	=71	=71	=71	=71	=71
8A\L	.	4.cc#\	4.ee\	.	.
!LO:TX:t=P:problem:mixed beam	!	!	!	!	!
16AA/L	.	.	.	.	.
16BB/JJ	.	.	.	.	.
8C#/L	.	.	.	.	.
8AA/J	.	8cc#\	8ee\	.	.
=72	=72	=72	=72	=72	=72
8D\L	.	8dd\L	8ff#\L	.	.
8C#\	6	8a\	8ee\	.	.
8BB\	7	8b\	8dd\	.	.
8BB\J	6\	8b\J	8ee\J	.	.
!LO:LB:g=original	!	!	!	!	!
=73	=73	=73	=73	=73	=73
!	!	!	!	!LO:N:vis=00	!
8AA/L	.	4.cc#\	4.cc#\	0r	.
8BB/	.	.	.	.	.
8C#/	.	.	.	.	.
8AA/J	.	8cc#\	8ee\	.	.
=74	=74	=74	=74	=74	=74
8D\L	.	16dd\LL	16ff#\LL	.	.
.	.	16cc#\	16ee\	.	.
8E\	.	16dd\	16ff#\	.	.
.	.	16ee\JJ	16gg\JJ	.	.
8F#\	.	16dd\LL	16ff#\LL	.	.
.	.	16ee\	16gg\	.	.
8D\J	.	16dd\	16ff#\	.	.
.	.	16ee\JJ	16gg\JJ	.	.
=75	=75	=75	=75	=75	=75
8AA/L	.	4cc#\	4ee\	.	.
8BB/	.	.	.	.	.
8C#/	.	8r	8r	.	.
8AA/J	.	8cc#\	8ee\	.	.
=76	=76	=76	=76	=76	=76
4D/	.	16dd\LL	16ff#\LL	.	.
.	.	16cc#\	16ee\	.	.
.	.	16dd\	16ff#\	.	.
.	.	16ee\JJ	16gg\JJ	.	.
!	!	!LO:LB:g=original	!LO:LB:g=original	!	!
8r	.	16dd\LL	16ff#\LL	.	.
.	.	16ff#\	16gg\	.	.
8D/	.	16ee\	16ff#\	.	.
.	.	16dd\JJ	16gg\JJ	.	.
=77	=77	=77	=77	=77	=77
!	!	!	!	!LO:N:vis=00	!
4AA/	.	16cc#\LL	16ee\LL	0r	.
.	.	16b\	16dd\	.	.
.	.	16cc#\	16ee\	.	.
.	.	16dd\JJ	16ff#\JJ	.	.
8r	.	8cc#\L	16ee\LL	.	.
.	.	.	16ff#\	.	.
8AA/	.	8cc#\J	16ee\	.	.
.	.	.	16ff#\JJ	.	.
=78	=78	=78	=78	=78	=78
4BB/	7	16b\LL	16dd\LL	.	.
.	.	16a#X\	16cc#\	.	.
.	.	16b\	16dd\	.	.
.	.	16cc#\JJ	16ee\JJ	.	.
8r	.	16b\LL	16dd\LL	.	.
.	.	16cc#\	16ee\	.	.
8BB/	6\	16b\	16dd\	.	.
.	.	16cc#\JJ	16ee\JJ	.	.
=79	=79	=79	=79	=79	=79
4.AA/	.	4.a/	4.cc#\	.	.
8D/	6\	16a/LL	16cc#\LL	.	.
.	.	16b/JJ	16dd\JJ	.	.
=80	=80	=80	=80	=80	=80
8E\L	.	8cc#\L	8ee\L	.	.
8D\	.	16dd\L	16ff#\L	.	.
.	.	16a\JJ	16cc#\JJ	.	.
8E\	.	8e/L	8cc#\L	.	.
!LO:TX:t=P:problem:mixed beam	!	!	!	!	!
8EE/J	4	8g#X/J	16b\L	.	.
.	3	.	16a\JJ	.	.
=81	=81	=81	=81	=81	=81
!	!	!	!	!LO:N:vis=00	!
8AA/L	.	4.cc#X\	4.a/	0r	.
8BB/	.	.	.	.	.
8C#/	.	.	.	.	.
8AA/J	.	8cc#\	8ee\	.	.
=82	=82	=82	=82	=82	=82
8D\L	.	16dd\LL	16ff#\LL	.	.
.	.	16cc#\	16ee\	.	.
8E\	.	16dd\	16ff#\	.	.
.	.	16ee\JJ	16gg\JJ	.	.
8F#\	6	16dd\LL	16ff#\LL	.	.
.	.	16ff#\	16aa\	.	.
8D\J	.	16ee\	16gg\	.	.
.	.	16dd\JJ	16ff#\JJ	.	.
=83	=83	=83	=83	=83	=83
!	!	!LO:TX:t=P:problem:brak 2 taktów w źródle	!	!	!
8AA/L	.	2ryy	16ee\LL	.	.
.	.	.	16dd\	.	.
8BB/	.	.	16ee\	.	.
.	.	.	16ff#\JJ	.	.
8C#/	.	.	8ee\L	.	.
8AA/J	.	.	8ee\J	.	.
!LO:LB:g=original	!	!	!LO:LB:g=original	!	!
=84	=84	=84	=84	=84	=84
8D\L	.	2ryy	16ff#\LL	.	.
.	.	.	16ee\	.	.
8E\	.	.	16ff#\	.	.
.	.	.	16gg\JJ	.	.
8F#\	.	.	16ff#\LL	.	.
.	.	.	16aa\	.	.
8D\J	.	.	16gg\	.	.
.	.	.	16ff#\JJ	.	.
=85	=85	=85	=85	=85	=85
!	!	!	!	!LO:N:vis=00	!
8AA/L	.	8cc#\L	8ee\L	0r	.
8AA/	.	8cc#\	8ee\	.	.
8D/	.	8cc#\	8dd\	.	.
8D/J	.	8dd\J	8ff#\J	.	.
=86	=86	=86	=86	=86	=86
4.C#/	.	4.ee\	4.gg\	.	.
8C#/	5	8ee\	8gg\	.	.
!	!	!LO:LB:g=original	!	!	!
=87	=87	=87	=87	=87	=87
8D\L	6 5	8dd\L	8.gg\L	.	.
8G\	.	8ee\	.	.	.
.	4	.	16ff#\	.	.
8A\	3	8.cc#\	8.ee\	.	.
!LO:TX:t=P:problem:mixed beam	!	!	!	!	!
8AA/J	.	.	.	.	.
.	.	16cc#\Jk	16dd\Jk	.	.
=88	=88	=88	=88	=88	=88
!LO:TX:t=P:problem:za dużo taktów pauzy w Canto	!	!LO:TX:t=P:problem:za dużo taktów pauzy w Canto	!LO:TX:t=P:problem:za dużo taktów pauzy w Canto	!LO:TX:t=P:problem:za dużo taktów pauzy	!
2ryy	.	2ryy	2ryy	.	.
=89	=89	=89	=89	=89	=89
!	!	!	!	!LO:TX:b:B:i:t=Finis	!
8D\L	.	8dd\L	8dd\L	2r;;	.
8G\	.	8dd\	8ee\	.	.
8A\	.	8.ee\	8a\	.	.
!LO:TX:t=P:problem:mixed beam	!	!	!	!	!
8AA\J	.	.	8cc#\J	.	.
.	.	16ee\Jk	.	.	.
=90	=90	=90	=90	=90	=90
4.D;;\	.	4.ff#\	4.dd\	4r	.
.	.	.	.	8r	.
!	!	!	!	!LO:TX:t=P:problem:pojedyncza kreska taktowa	!
!LO:TX:b:i:t=Finis	!	!LO:TX:b:t=Finis	!LO:TX:b:t=finis	!	!
8r	.	8dd\	8ff#\	8ff#\	ad
=91||	=91||	=91||;;	=91||	=91||	=91||
*>B	*	*>B	*>B	*>B	*
!LO:TX:b:i:t=Canto	!	!	!	!	!
!LO:N:vis=00	!	!LO:N:vis=00	!LO:N:vis=00	!	!
0r	.	0r	0r	8ff#\	Je-
.	.	.	.	8ff#\	-ſum
.	.	.	.	8ff#\	ci-
.	.	.	.	(16ee\LL	-to
.	.	.	.	16dd\JJ)	.
=92	=92	=92	=92	=92	=92
.	.	.	.	8.dd\	cur-
.	.	.	.	16cc#\	-ri-
.	.	.	.	8cc#\	-te
.	.	.	.	8a#X\	ad
=93	=93	=93	=93	=93	=93
.	.	.	.	8b\	Je-
.	.	.	.	8a\	-ſum
.	.	.	.	8b\	cur-
.	.	.	.	8cc#\	-ri
!	!	!	!	!LO:LB:g=original	!
=94	=94	=94	=94	=94	=94
.	.	.	.	4.a#X\	te
*	*	*	*	*	*ij
.	.	.	.	8ff#\	ad
=95	=95	=95	=95	=95	=95
!LO:N:vis=0	!	!LO:N:vis=0	!LO:N:vis=0	!	!
1r	.	1r	1r	8ff#\	Je-
.	.	.	.	8ff#\	-ſum
.	.	.	.	8ff#\	ci-
.	.	.	.	(16ee\LL	-to
.	.	.	.	16dd\JJ)	.
=96	=96	=96	=96	=96	=96
.	.	.	.	8.cc#\	cur-
.	.	.	.	16cc#\	-ri-
.	.	.	.	8cc#\	-te
.	.	.	.	8a#X\	ad
=97	=97	=97	=97	=97	=97
2r	.	2r	2r	8b\	Je-
.	.	.	.	8a\	-ſum
.	.	.	.	8b\	cur-
.	.	.	.	8cc#\	-ri
=98	=98	=98	=98	=98	=98
!	!	!LO:TX:a:t=P:problem:# above	!	!	!
4r	.	4.dd#\	4a#X/	4.a#X\	te
*	*	*	*	*	*Xij
8r	.	.	8a#/	.	.
8E\	#	8a#X/	8cc#\	8r	.
=99	=99	=99	=99	=99	=99
!	!	!	!	!LO:N:vis=00	!
8B\L	-n	8b/L	8dd\L	0r	.
8F#\	#	8a#X/	8cc#\	.	.
8B\	-n	8b/	8dd\	.	.
8F#\J	.	8a#/J	8cc#\J	.	.
=100	=100	=100	=100	=100	=100
8B\L	.	8b/L	8dd\L	.	.
8F#\	#	8a#X/	8cc#\	.	.
8D\	6	8b/	8dd\	.	.
8F#\J	#	8a#/J	8cc#\J	.	.
!	!	!	!LO:LB:g=original	!	!
=101	=101	=101	=101	=101	=101
8B\L	.	8b/L	8dd\L	.	.
8F#\	#	8a#X/	8cc#\	.	.
8D\	6	8b/	8dd\	.	.
8F#\J	#	8a#X/J	8cc#\J	.	.
=102	=102	=102	=102	=102	=102
8B\L	.	8b/L	8dd\L	.	.
8F#\	#	8a#X/J	8cc#\J	.	.
8D\	.	8b/L	8dd\L	.	.
8F#\J	.	16a#X/L	16cc#\L	.	.
.	.	16b/JJ	16dd\JJ	.	.
!LO:LB:g=original	!	!	!	!	!
=103	=103	=103	=103	=103	=103
!LO:TX:t=P:problem:brak taktu w źródle	!	!	!	!LO:N:vis=0	!
2ryy	.	4.cc#\	4.ee\	1r	.
.	.	16dd\LL	16ff#\LL	.	.
.	.	16cc#\JJ	16ee\JJ	.	.
=104	=104	=104	=104	=104	=104
8B\L	.	4.b\	4.dd\	.	.
8F#\	#	.	.	.	.
8D\	.	.	.	.	.
8F#\J	.	16cc#\LL	16ee\LL	.	.
.	.	16b\JJ	16dd\JJ	.	.
!	!	!LO:LB:g=original	!	!	!
=105	=105	=105	=105	=105	=105
8F#\L	#	8a#X/L	8cc#\L	4r	.
8D\	.	16b/L	16dd\L	.	.
.	.	16cc#/JJ	16ee\JJ	.	.
8F#\	4	8.a#/L	8.cc#\L	8r	.
.	3	.	.	.	.
8FF#/J	#	.	.	8ff#\	Ad
.	.	16a#/Jk	16b\Jk	.	.
=106	=106	=106	=106	=106	=106
4.BB/	.	4.b/	4.b\	8ff#\	Je-
.	.	.	.	8ff#\	-ſum
.	.	.	.	8ff#\	ci-
8r	.	8ryy	8r	(16ee\LL	-to
!LO:TX:a:t=P:problem:podwójna kreska taktowa	!	!	!	!	!
.	.	.	.	16dd\JJ)	.
!	!	!	!	!LO:LB:g=original	!
=107	=107	=107	=107	=107	=107
!LO:TX:b:B:t=canto	!	!	!	!	!
!LO:N:vis=00	!	!LO:N:vis=00	!LO:N:vis=00	!	!
0r	.	0r	0r	8.cc#\	cur-
.	.	.	.	16cc#\	-ri-
.	.	.	.	8cc#\	-te
.	.	.	.	8a#X\	ad
=108	=108	=108	=108	=108	=108
.	.	.	.	8b\	Je-
!	!	!	!	!LO:SIC:v:s=8a#	!
.	.	.	.	8a\	-ſum
.	.	.	.	8b\	cur-
.	.	.	.	8cc#\	-ri-
=109	=109	=109	=109	=109	=109
.	.	.	.	4.a#X\	-te
*	*	*	*	*	*ij
.	.	.	.	8ff#\	Ad
=110	=110	=110	=110	=110	=110
.	.	.	.	8ff#\	Je-
.	.	.	.	8ff#\	-ſum
.	.	.	.	8ff#\	ci-
.	.	.	.	(16ee\LL	-to
.	.	.	.	16dd\JJ)	.
=111	=111	=111	=111	=111	=111
!LO:N:vis=00	!	!LO:N:vis=00	!LO:N:vis=00	!	!
0r	.	0r	0r	8.cc#\	cur-
.	.	.	.	16cc#\	-ri-
.	.	.	.	8cc#\	-te
.	.	.	.	8a#X\	ad
=112	=112	=112	=112	=112	=112
.	.	.	.	8b\L	Je-
!	!	!	!	!LO:SIC:v:s=8a#JJ	!
.	.	.	.	8a\JL	-ſum
.	.	.	.	8b\	cur-
.	.	.	.	8cc#\	-ri-
!	!	!	!	!LO:LB:g=original	!
=113	=113	=113	=113	=113	=113
.	.	.	.	4.a#X\	-te
*	*	*	*	*	*Xij
.	.	.	.	8dd\	hic
=114	=114	=114	=114	=114	=114
.	.	.	.	8cc#\	re-
.	.	.	.	8dd\	-qui-
.	.	.	.	8cc#\	-em
.	.	.	.	8dd\	quae
=115	=115	=115	=115	=115	=115
!LO:N:vis=00	!	!LO:N:vis=00	!LO:N:vis=00	!	!
0r	.	0r	0r	8.ee\	si-
.	.	.	.	16dd\	.
.	.	.	.	8cc#\	-tam
*	*	*	*	*	*ij
.	.	.	.	8dd\	hic
=116	=116	=116	=116	=116	=116
.	.	.	.	8cc#\	re-
.	.	.	.	8dd\	-qui-
.	.	.	.	8cc#\	-em
.	.	.	.	8dd\	quae
=117	=117	=117	=117	=117	=117
.	.	.	.	8.ee\L	si-
.	.	.	.	16dd\Jk	.
.	.	.	.	8cc#\	-tam
*	*	*	*	*	*Xij
.	.	.	.	8ff#\	hic
=118	=118	=118	=118	=118	=118
.	.	.	.	8ff#\	re-
.	.	.	.	8ff#\	-qui-
.	.	.	.	(16ee\LL	-em
.	.	.	.	16dd\JJ)	.
.	.	.	.	(16cc#\LL	ca
.	.	.	.	16b\JJ)	.
!	!	!	!	!LO:TX:a:t=P:problem:custos użyty jako łamanie pięciolinii	!
!	!	!	!	!LO:SIC:znak przypominający custos po kresce taktowej:v	!
!	!	!	!	!LO:LB:g=original	!
=119	=119	=119	=119	=119	=119
!LO:N:vis=00	!	!LO:N:vis=00	!LO:N:vis=00	!	!
0r	.	0r	0r	8.a#X\	-pe-
.	.	.	.	16a#\	-si-
.	.	.	.	8a#\	-te
.	.	.	.	8cc#\	hic
=120	=120	=120	=120	=120	=120
.	.	.	.	4.dd\	hic
.	.	.	.	8r	hic
=121	=121	=121	=121	=121	=121
.	.	.	.	4r	.
.	.	.	.	8r	.
*	*	*	*	*	*ij
!	!	!	!	!LO:N:vis=8.	!
.	.	.	.	8cc#\	hic
=122	=122	=122	=122	=122	=122
.	.	.	.	4.dd\	hic
*	*	*	*	*	*Xij
.	.	.	.	8r	.
=123	=123	=123	=123	=123	=123
!LO:N:vis=0	!	!LO:N:vis=00	!LO:N:vis=0	!	!
1r	.	0r	1r	4r	.
.	.	.	.	8r	.
.	.	.	.	8cc#\	hic
=124	=124	=124	=124	=124	=124
.	.	.	.	8dd\	hic
.	.	.	.	(16cc#\LL	ca-
.	.	.	.	16dd\JJ)	.
.	.	.	.	8f#/	-pes-
.	.	.	.	8a#X/	-si-
=125	=125	=125	=125	=125	=125
2r	.	.	2r	4.b\	-te
.	.	.	.	8r	.
=126	=126	=126	=126	=126	=126
4BB/	.	.	4r	2r	.
4r	.	.	4ff#\	.	.
=127	=127	=127	=127	=127	=127
4BB/	.	8dd\L	8ff#\L	2r	.
.	.	8dd\J	8ff#\J	.	.
8E\L	.	8dd\L	8ff#\L	.	.
8E\J	.	16cc#\L	16ee\L	.	.
.	.	16b\JJ	16dd\JJ	.	.
=128	=128	=128	=128	=128	=128
!	!	!LO:SIC:v:s=8.a#	!	!	!
8F#\L	.	8.a/L	8.cc#\L	2r	.
8F#\	#	.	.	.	.
!	!	!LO:TX:b:t=P:problem:# below	!	!	!
.	.	16a#X/K	16cc#\Jk	.	.
!	!	!	!LO:TX:a:t=P:problem:# above	!	!
8F#\	.	8a#/	8cc#X\L	.	.
!	!	!	!LO:SIC:v:s=8a#	!	!
8F#\J	.	8f#/J	8a\J	.	.
!	!	!	!LO:LB:g=original	!	!
=129	=129	=129	=129	=129	=129
4BB/	.	8ff#\L	8b/L	2r	.
.	.	8ff#\J	8a/	.	.
4E\	.	8ff#\L	8b/	.	.
.	.	16ee\L	8cc#/J	.	.
.	.	16dd\JJ	.	.	.
=130	=130	=130	=130	=130	=130
4.F#\	.	4.cc#\	4.a#X/	2r	.
8A#X\	6	8ee\	8ff#\	.	.
=131	=131	=131	=131	=131	=131
4B\	.	8dd\L	8ff#\L	2r	.
.	.	8dd\J	8ff#\J	.	.
8E\L	.	8dd\L	8ff#\L	.	.
8E\J	.	16cc#\L	16ee\L	.	.
.	.	16b\JJ	16dd\JJ	.	.
=132	=132	=132	=132	=132	=132
4F#\	.	8.a#X/L	8.cc#\L	2r	.
.	.	16a#/K	16cc#\Jk	.	.
4A#X\	.	8a#/	8cc#\L	.	.
.	.	8f#/J	8a#X\J	.	.
!LO:LB:g=original	!	!	!	!	!
=133	=133	=133	=133	=133	=133
8BB/L	.	8ff#\L	8b/L	2r	.
8C#/	.	8ff#\J	8a#X/	.	.
8D/	.	8ff#\L	8b/	.	.
8E/J	.	16ff#\L	8cc#/J	.	.
.	.	16ee\JJ	.	.	.
!	!	!LO:LB:g=original	!	!	!
=134	=134	=134	=134	=134	=134
!	!	!	!LO:SIC:v:s=4.a#	!	!
4.F#\	.	4.cc#\	4.a/	2r	.
8BB/	.	8b\	8dd\	.	.
=135	=135	=135	=135	=135	=135
*^	*	*	*	*	*
!	!	!	!LO:TX:b:t=P:problem:# below	!	!	!
8ryy	8F#\L	#	8a#X/L	8cc#\L	2r	.
8BB/L	8ryy	.	8b/	8dd\	.	.
!	!	!	!LO:TX:b:t=P:problem:♮ below	!	!	!
8ryy	8F#\J	.	8a#/	8cc#\	.	.
8BB/J	8ryy	#	8b/J	8dd\J	.	.
*v	*v	*	*	*	*	*
=136	=136	=136	=136	=136	=136
4E\	.	8cc#\L	8ee\L	2r	.
.	.	8b\	8dd\	.	.
8F#\L	.	8a#X\	8cc#\	.	.
8BB\J	.	8b\J	8dd\J	.	.
=137	=137	=137	=137	=137	=137
!	!	!LO:SIC:v:s=8a#	!	!	!
8F#\L	#	8a/L	8cc#\L	2r	.
8r	.	8b/	8dd\	.	.
!	!	!LO:SIC:v:s=8a#	!	!	!
8F#\J	.	8a/	8cc#\	.	.
8r	.	8b/J	8dd\J	.	.
=138	=138	=138	=138	=138	=138
8E\L	6	8cc#\L	8.ee\L	2r	.
8r	.	8b\	.	.	.
.	.	.	16dd\K	.	.
8F#\J	#	8a#X\	8cc#\	.	.
8r	.	8dd\J	8ee\J	.	.
!	!	!	!LO:LB:g=original	!	!
=139	=139	=139	=139	=139	=139
8BB/L	.	8dd\L	8ff#\L	2r	.
8r	.	8dd\	8ff#\J	.	.
8BB/J	.	8cc#\	16ff#\LL	.	.
.	.	.	16ee\	.	.
8r	.	8cc#\J	16dd\	.	.
.	.	.	16cc#\JJ	.	.
=140	=140	=140	=140	=140	=140
8F#\L	.	8cc#\L	8.a#X/L	2r	.
8r	.	8cc#\J	.	.	.
.	.	.	16a#/Jk	.	.
8F#\J	.	8cc#\	8a#/	.	.
8r	.	8r	8r	.	.
!LO:TX:a:t=P:problem:custos użyty jako łamanie pięciolinii	!	!	!	!	!
!LO:SIC:znak przypominający custos po kresce taktowej:v	!	!	!	!	!
!LO:LB:g=original	!	!	!	!	!
=141	=141	=141	=141	=141	=141
8F#\L	.	4r	4r	2r	.
8G#X\	.	.	.	.	.
8A#X\	.	8r	8r	.	.
8F#\J	.	8a#X/	8cc#\	.	.
=142	=142	=142	=142	=142	=142
4.B\	.	4.b\	4.dd\	2r	.
8F#\	.	8ff#\	8cc#\	.	.
=143	=143	=143	=143	=143	=143
4.BB/	.	8ff#\L	4.dd\	2r	.
.	.	16ee\L	.	.	.
.	.	16dd\JJ	.	.	.
.	.	8dd\L	.	.	.
8F#\	.	16cc#\L	8cc#\	.	.
.	.	16b\JJ	.	.	.
!	!	!LO:LB:g=original	!	!	!
=144	=144	=144	=144	=144	=144
8G\L	.	4.b\	8dd\L	2r	.
8E\J	.	.	16b\L	.	.
.	.	.	16cc#\JJ	.	.
4F#\	.	.	8f#/L	.	.
!	!	!LO:SIC:v:s=8a#	!	!	!
.	.	8a/	8a#X/J	.	.
=145	=145	=145	=145	=145	=145
4.BB/	.	4.b/	4.b/	4r	.
.	.	.	.	8r	.
!LO:TX:b:Bi:t=Da capo uſ q(ue) ad Signum \nFinis	!	!LO:TX:b:Bi:t=Da capo uſ q(ue) \nad Signum Finis	!LO:TX:a:Bi:t=Da capo uſ q(ue) \nad Signum \nFinis	!LO:TX:b:Bi::t=Da capo uſq(ue) \nad Signum \nFinis	!
8D/	.	8a/	8a/	8cc#\	Huc
==	==	==	==	==	==
*-	*-	*-	*-	*-	*-
!!!system-decoration: s1[g1]s4
!!!RDF**kern: < = below
!!!ENC: Marta Lawrence
!!!END: 2020-11-18
!!!ENC: Anastazja Marusiak
!!!END: 2020-06-04
